X:4107
T:The Milltimber Jig
P:The Milltimber Jig
C:Ian Crichton
R:Jig (8x32)
B:RSCDS 41-7
Z:Anselm Lingnau <anselm@strathspey.org>
M:6/8
L:1/8
K:D
|:A|"D"AFD A,DF|Adf aAa|"Em"gfe "E7/G#"dcB|"A"ABA "A7/C#"GFE|
    "D"AFD A,DF|Adf "D/F#"aAa|"Em"gfe "A7"cAa|"D"fdd d2:|
|:e|"D"f2e fga|"Em"gfg gef|gfe "E7/G#"dcB|"A"AaA "A7/C#"a2g|
    "D"f2e fga|"Em"gfg gef|gfe "A7"cAa|"D"fdd d2:|
